svg/u231b.svg

<svg viewBox="0 0 128 128" xmlns="http://www.w3.org/2000/svg">
  <g>
    <g>
      <path d="M23.36,116.32v-7.42c7.4-1.9,67.86,0,81.28,0v7.42c0,4.24-18.2,7.68-40.64,7.68 S23.36,120.56,23.36,116.32z" fill="#8B5738"/>
      <ellipse cx="64" cy="108.48" rx="40.64" ry="7.68" fill="#FFB17A"/>
      <ellipse cx="64" cy="108.48" rx="40.64" ry="7.68" fill="#CC8552"/>
      <path d="M69.96,65.49c-0.75-0.31-1.07-0.92-1.07-1.73c0-0.81,0.25-1.39,0.98-1.64 c4.61-1.86,27.77-10.73,27.77-38.36l-0.18-4.82l-66.98-0.08l-0.12,5.07c0,26.79,23.08,36.25,27.68,38.11 c0.75,0.31,1.22,0.82,1.22,1.73c0,0.91-0.39,1.39-1.13,1.64c-4.61,1.86-27.77,10.73-27.77,38.36l0,0c0.12,3.12,1.6,5.57,5.34,6.5 c5.03,1.25,14.38,2.57,30.53,2.57c13.91,0,21.7-1.02,26.03-2.03c4.25-0.99,5.29-3.44,5.36-6.6l0.01-0.61 C97.64,76.81,74.57,67.35,69.96,65.49z" opacity="0.75" fill="#81D4FA"/>
      <path d="M97.46,18.94l-66.98-0.08l-0.11,4.52c0,0,7.25,3.72,33.63,3.72s33.63-3.72,33.63-3.72 L97.46,18.94z" opacity="0.39" fill="#1D44B3"/>
      <path d="M23.36,17.94v-7.87c7.18-0.96,70.91,0,81.28,0v7.87c0,3.36-18.2,6.08-40.64,6.08 S23.36,21.3,23.36,17.94z" fill="#8B5738"/>
      <ellipse cx="64" cy="10.08" rx="40.64" ry="6.08" fill="#CC8552"/>
    </g>
    <path d="M60.32,74.41c1.06-1.64,1.27-4.51,4.48-4.51c1.81,0,28.02,34.52,26.07,36.8 c-0.65,0.76-1.61,1.07-2.53,1.33c-15.38,4.34-38.86,3.26-48.98-0.97c-4.03-1.68,3.51-11.33,5.39-13.63 C45.41,92.63,56.81,79.81,60.32,74.41z" fill="#FFCA28"/>
    <path d="M65.45,74.21c3.76,7.16,4.89,12.49,6.53,20.58c0.84,4.11,3.96,15.49,7.74,15.02 c3.04-0.44,5.95-1.02,8.61-1.78c0.92-0.26,1.88-0.57,2.53-1.33c0.55-0.65,0.1-3.59-4.3-9.64c-3.77-5.17-9.14-12.39-10-14.05 C72.7,75.57,66.75,69.66,64.8,69.9C63.41,70.06,64.58,72.55,65.45,74.21z" fill="#E2A610"/>
    <g opacity="0.6">
      <path d="M42.9,80.6c-3.13,3.66-5.48,8.58-4.59,13.33c0.94,5.01,5.6,3.63,7.22,2.36 c5.16-4.05,3.75-9.24,7.74-15.07c0.68-1,3.52-4.13,3.12-6.1c-0.24-1.17-2.96-1.77-7.91,0.71C46.3,76.93,44.51,78.73,42.9,80.6z" fill="#FFFFFF"/>
    </g>
    <g opacity="0.6">
      <path d="M45.79,37.66c1.26,2.94,3.56,9.61,0.56,10.75c-3,1.15-7.39-3.11-9.47-7.39s-1.89-9.96,1.25-10.05 C41.27,30.88,44.12,33.77,45.79,37.66z" fill="#FFFFFF"/>
    </g>
  </g>
</svg>

<svg viewBox="0 0 128 128" xmlns="http://www.w3.org/2000/svg">
  <defs/>
  <path d="M23.36,116.32 L23.36,108.9 C30.76,107 91.22,108.9 104.64,108.9 L104.64,116.32 C104.64,120.56 86.44,124 64,124 C41.56,124 23.36,120.56 23.36,116.32 Z" fill="#8B5738"/>
  <path d="M104.64,108.48 A40.64 7.68 0 1 1 23.36,108.48 A40.64 7.68 0 1 1 104.64,108.48 Z" fill="#FFB17A"/>
  <path d="M104.64,108.48 A40.64 7.68 0 1 1 23.36,108.48 A40.64 7.68 0 1 1 104.64,108.48 Z" fill="#CC8552"/>
  <path d="M69.96,65.49 C69.21,65.18 68.89,64.57 68.89,63.76 C68.89,62.95 69.14,62.37 69.87,62.12 C74.48,60.26 97.64,51.39 97.64,23.76 L97.46,18.94 L30.48,18.86 L30.36,23.93 C30.36,50.72 53.44,60.18 58.04,62.04 C58.79,62.35 59.26,62.86 59.26,63.77 C59.26,64.68 58.87,65.16 58.13,65.41 C53.52,67.27 30.36,76.14 30.36,103.77 L30.36,103.77 C30.48,106.89 31.96,109.34 35.7,110.27 C40.73,111.52 50.08,112.84 66.23,112.84 C80.14,112.84 87.93,111.82 92.26,110.81 C96.51,109.82 97.55,107.37 97.62,104.21 L97.63,103.6 C97.64,76.81 74.57,67.35 69.96,65.49 Z" fill="#81D4FA" opacity="0.75"/>
  <path d="M97.46,18.94 L30.48,18.86 L30.37,23.38 C30.37,23.38 37.62,27.1 64,27.1 C90.38,27.1 97.63,23.38 97.63,23.38 L97.46,18.94 Z" fill="#1D44B3" opacity="0.39"/>
  <path d="M23.36,17.94 L23.36,10.07 C30.54,9.11 94.27,10.07 104.64,10.07 L104.64,17.94 C104.64,21.3 86.44,24.02 64,24.02 C41.56,24.02 23.36,21.3 23.36,17.94 Z" fill="#8B5738"/>
  <path d="M104.64,10.08 A40.64 6.08 0 1 1 23.36,10.08 A40.64 6.08 0 1 1 104.64,10.08 Z" fill="#CC8552"/>
  <path d="M60.32,74.41 C61.38,72.77 61.59,69.9 64.8,69.9 C66.61,69.9 92.82,104.42 90.87,106.7 C90.22,107.46 89.26,107.77 88.34,108.03 C72.96,112.37 49.48,111.29 39.36,107.06 C35.33,105.38 42.87,95.73 44.75,93.43 C45.41,92.63 56.81,79.81 60.32,74.41 Z" fill="#FFCA28"/>
  <path d="M65.45,74.21 C69.21,81.37 70.34,86.7 71.98,94.79 C72.82,98.9 75.94,110.28 79.72,109.81 C82.76,109.37 85.67,108.79 88.33,108.03 C89.25,107.77 90.21,107.46 90.86,106.7 C91.41,106.05 90.96,103.11 86.56,97.06 C82.79,91.89 77.42,84.67 76.56,83.01 C72.7,75.57 66.75,69.66 64.8,69.9 C63.41,70.06 64.58,72.55 65.45,74.21 Z" fill="#E2A610"/>
  <path d="M42.9,80.6 C39.77,84.26 37.42,89.18 38.31,93.93 C39.25,98.94 43.91,97.56 45.53,96.29 C50.69,92.24 49.28,87.05 53.27,81.22 C53.95,80.22 56.79,77.09 56.39,75.12 C56.15,73.95 53.43,73.35 48.48,75.83 C46.3,76.93 44.51,78.73 42.9,80.6 Z" fill="#FFFFFF" opacity="0.6"/>
  <path d="M45.79,37.66 C47.05,40.6 49.35,47.27 46.35,48.41 C43.35,49.56 38.96,45.3 36.88,41.02 C34.8,36.74 34.99,31.06 38.13,30.97 C41.27,30.88 44.12,33.77 45.79,37.66 Z" fill="#FFFFFF" opacity="0.6"/>
</svg>
